**kern	**kern
*staff2	*staff1
*clefF4	*clefG2
*k[b-e-]	*k[b-e-]
*M4/4	*M4/4
=84	=84
*k[b-e-a-d-g-]	*k[b-e-a-d-g-]
*^	*^
(8B-L	1BB-	(4.b-	2d- 2f
8F	.	.	.
8B-	.	.	.
8FJ	.	8cc	.
8B-L	.	4.dd-	2d- 2f
8F	.	.	.
8B-	.	.	.
8FJ)	.	8b-)	.
=85	=85	=85	=85
(8E-L	1BB- 1A	(4.cc	1e- 1g- 1a
8F	.	.	.
8E-	.	.	.
8FJ	.	8dd-	.
8E-L	.	4ee-)	.
8F	.	.	.
8E-	.	4r	.
8FJ)	.	.	.
=86	=86	=86	=86
(8E-L	1BB- 1A	(4.cc	2e- 2g- 2a
8F	.	.	.
8E-	.	.	.
8FJ	.	8dd-	.
8E-L	.	4.ee-	2e- 2g- 2a
8F	.	.	.
8E-	.	.	.
8FJ)	.	8cc)	.
=87	=87	=87	=87
(8D-L	1BB- 1B-	(4.dd-	[2f [2b-
8F	.	.	.
8D-	.	.	.
8FJ	.	8ee-	.
8D-L	.	4ff)	4f] 4b-]
8F	.	.	.
8D-	.	8r	4r
8FJ)	.	(8ff	.
=88	=88	=88	=88
(8E-L	1BB- 1B-	4.gg-	[2g-
8G-	.	.	.
8E-	.	.	.
8G-J	.	8cc-)	.
8E-L	.	4.b-	4.g-]
8G-	.	.	.
8E-	.	.	.
8G-J)	.	(8gg-	8g-
=89	=89	=89	=89
(8D-L	1BB- 1B-	4.ff	[2f
8F	.	.	.
8D-	.	.	.
8FJ	.	8a)	.
8D-L	.	4.b-	4.f]
8F	.	.	.
8D-	.	.	.
*	*	*v	*v
8BB-J)	.	(8e 8ee
=90	=90	=90
(8AAL 8C	2FF	4.f) 4.ff
8F	.	.
8BB- 8D-	.	.
8FJ)	.	(8e 8ee
(8AAL 8C	2FF	4.f) 4.ff
8F	.	.
8BB- 8D-	.	.
8FJ)	.	(8e 8ee
*v	*v	*
=91	=91
8FFL 8AA 8C	4f) 4ff
(8F	.
8E	4r
8FJ	.
8EL	4.r
8F	.
8E	.
8FJ)	8f
=	=
*-	*-
